usr/share/icons/biglinux-icons-material/scalable/apps/com.github.cryptowyrm.copypastegrab.svg

<svg width="24" height="24" viewBox="0 0 24 24" fill="none" xmlns="http://www.w3.org/2000/svg">
<path fill-rule="evenodd" clip-rule="evenodd" d="M9.59604 1.11359C9.71588 1.11486 9.83043 1.0996 9.93969 1.06779C11.3755 0.973736 12.8111 0.977551 14.2467 1.07924C15.5484 1.18066 16.8085 1.46308 18.0269 1.9265C20.0525 2.76044 21.4386 4.20689 22.185 6.26585C22.6119 7.50549 22.8639 8.78021 22.9411 10.09C23.0478 11.7347 23.0096 13.3758 22.8265 15.0133C22.6895 16.1642 22.3916 17.271 21.933 18.3336C21.0824 20.1761 19.704 21.447 17.7978 22.1463C16.2531 22.6682 14.6647 22.943 13.0325 22.9706C11.1966 23.0661 9.37913 22.9287 7.57997 22.5585C4.26839 21.8208 2.22559 19.8018 1.45158 16.5017C1.12311 15.0161 0.974199 13.5124 1.00483 11.9906C0.968176 10.3724 1.14 8.77709 1.52031 7.20471C2.33171 4.11908 4.2905 2.20701 7.39669 1.46852C8.12048 1.29157 8.8536 1.17326 9.59604 1.11359Z" fill="url(#paint0_radial_3_120)"/>
<path fill-rule="evenodd" clip-rule="evenodd" d="M7.42749 5.00009C6.63641 5.01409 6.00003 5.63328 6 6.39991V17.5982C6.00028 18.7159 7.28575 19.3826 8.24564 18.7627L18.357 13.1637C19.2143 12.6094 19.2143 11.3886 18.357 10.8344L8.24564 5.23542C8.00359 5.0789 7.71841 4.99687 7.42749 5.00009Z" fill="white"/>
<defs>
<radialGradient id="paint0_radial_3_120" cx="0" cy="0" r="1" gradientUnits="userSpaceOnUse" gradientTransform="translate(12 1) rotate(90) scale(22)">
<stop stop-color="#F43D53"/>
<stop offset="1" stop-color="#9D2F37"/>
</radialGradient>
</defs>
</svg>

<svg xmlns="http://www.w3.org/2000/svg" width="24" height="24" fill="none"><path fill="url(#a)" fill-rule="evenodd" d="M9.596 1.114c.12 0 .234-.014.344-.046a31.627 31.627 0 0 1 4.307.011c1.301.102 2.561.384 3.78.848 2.025.833 3.412 2.28 4.158 4.339.427 1.24.679 2.514.756 3.824a27.94 27.94 0 0 1-.114 4.923 11.88 11.88 0 0 1-.894 3.32c-.85 1.843-2.229 3.114-4.135 3.813a15.624 15.624 0 0 1-4.765.825 21.423 21.423 0 0 1-5.453-.413c-3.312-.737-5.354-2.756-6.128-6.056a19.047 19.047 0 0 1-.447-4.511 18.491 18.491 0 0 1 .515-4.786c.812-3.086 2.77-4.998 5.877-5.736a13.953 13.953 0 0 1 2.199-.355Z" clip-rule="evenodd"/><path fill="#fff" fill-rule="evenodd" d="M7.427 5C6.637 5.014 6 5.633 6 6.4v11.198c0 1.118 1.286 1.785 2.246 1.165l10.111-5.6a1.376 1.376 0 0 0 0-2.329L8.246 5.235A1.478 1.478 0 0 0 7.427 5Z" clip-rule="evenodd"/><defs><radialGradient id="a" cx="0" cy="0" r="1" gradientTransform="matrix(0 22 -22 0 12 1)" gradientUnits="userSpaceOnUse"><stop stop-color="#F43D53"/><stop offset="1" stop-color="#9D2F37"/></radialGradient></defs></svg>
